X:55
T:Star of the County Down
M:4/4
L:1/8
K:Am
EG | A2 A2 A2 GA|c2 c2 d2 cd | e2 dc A2 A2 | G4 z2 EG |
A2 A2 A2 GA | c2 c2 d2 cd | e2 dc A2 A2 | A4 z2 ee |
g2 e2 e2 dc | d2 d2 d2 cd | e2 dc A2 A2 | G4 z2 EG |
A2 A2 A2 GA | c2 c2 d2 cd | e2 dc A2 A2 | A4 z2 ||
